!!!COM: Haydn, Franz Joseph
!!!OTL: String Quartet in C Major
!!!OPS: Opus 74
!!!ONM: No. 1
!!!OMD: Allegro moderato
!!!OMV: 1
!!!SCT: H III:72
!!!SCA: Thematisch-bibliographisches Werkevererzeichnis (A. van Hoboken)
!!!YOR: Trautwein Edition
!!!ENC: Frances Bennion
!!!CDT: 1732/3/31/-1809/5/31/
!!!CNT: Oesterreich
!!!YEC: Copyright (c) 1994, 2000 Center for Computer Assisted Research in the Humanities
!!!YEM: Rights to all derivative editions reserved.
!!!YEM: Refer to licensing agreement for further details.
!!!YEN: United States of America
**kern	**kern	**kern	**kern
*k[]	*k[]	*k[]	*k[]
*C:	*C:	*C:	*C:
*clefF4	*clefC3	*clefF	*clefF
*M4/4	*M4/4	*M4/4	*M4/4
1GG	1B 1d	1G 1f	1d 1b
=2	=2	=2	=2
4CC 4C	4C 4G 4e	4e 4G	4G 4cc 4e
2.r	2.r	2.r	2.r
=3	=3	=3	=3
8c	2e	2g	2cc
8c	.	.	.
8c	.	.	.
8c	.	.	.
8c	2f	2a	2dd
8c	.	.	.
8c	.	.	.
8c	.	.	.
=4	=4	=4	=4
8c	2d	2f	2b
8c	.	.	.
8c	.	.	.
8c	.	.	.
8c	2e	2g	4cc
8c	.	.	.
8c	.	.	4cc#
8c	.	.	.
=5	=5	=5	=5
8c	2f	4..a	2dd
8c	.	.	.
8c	.	.	.
8c	.	.	.
.	.	16b	.
8c	4f#	4cc	4ee-
8c	.	.	.
8c	4g	4cc	4ee
8c	.	.	.
=6	=6	=6	=6
8c	4a	4cc	2ff
8c	.	.	.
8c	4b	4dd	.
8c	.	.	.
4c	4cc	4g	4ee
4r	4r	4r	8r
.	.	.	8gg
=7	=7	=7	=7
1EE	[1C	1G	8ccc
.	.	.	16eee
.	.	.	16ddd
.	.	.	16ccc
.	.	.	16bb
.	.	.	16aa
.	.	.	16gg
.	.	.	16ff
.	.	.	16ee
.	.	.	16dd
.	.	.	16cc
.	.	.	16b
.	.	.	16a
.	.	.	16g
.	.	.	16f
=8	=8	=8	=8
2.FF	4C]	2.A	2e
.	4C#	.	.
.	2D	.	4d
4FF#	.	8c	4a
.	.	8d	.
=9	=9	=9	=9
[1GG	[2F	[2d	2c
.	8F]	8d]	8B
.	8E	8c	8c
.	8F	8B	8d
.	8E	8c	8e
=10	=10	=10	=10
2GG]	2D	4c	2f
.	.	4B	.
8CC	4E	4c	4e
8C	.	.	.
8GG	4r	4r	4r
8EE	.	.	.
=11	=11	=11	=11
8CC	2e	2g	2cc
8c	.	.	.
8c	.	.	.
8c	.	.	.
8c	2f	2a	2dd
8c	.	.	.
8c	.	.	.
8c	.	.	.
=12	=12	=12	=12
8c	2d	2f	2b
8c	.	.	.
8c	.	.	.
8c	.	.	.
4c	4e	8e	4cc
.	.	8cc	.
4B-	4g	8cc	4ee
.	.	8cc	.
=13	=13	=13	=13
2A	2.c	8cc	2ff
.	.	8cc	.
.	.	8cc	.
.	.	8cc	.
4A-	.	8cc	4ff#
.	.	8cc	.
4G	4d	8cc	4gg
.	.	8cc	.
=14	=14	=14	=14
1F#	1e-	2cc	4aa
.	.	.	8.aa
.	.	.	16bb
.	.	2A	4.ccc
.	.	.	8ccc
=15	=15	=15	=15
1G	1e	[1c	16ccc
.	.	.	16ee
.	.	.	16ff
.	.	.	16ff#
.	.	.	16gg
.	.	.	16b
.	.	.	16cc
.	.	.	16dd
.	.	.	16ee
.	.	.	16e
.	.	.	16f
.	.	.	16f#
.	.	.	16g
.	.	.	16B
.	.	.	16c
.	.	.	16d
=16	=16	=16	=16
16r	16r	1c_	2e
16GG#	16G#	.	.
16AA	16A	.	.
16BB	16B	.	.
16C	16c	.	.
16EE	16E	.	.
16FF	16F	.	.
16GG	16G	.	.
4AA	4A	.	4f
4FF#	4A	.	4a
=17	=17	=17	=17
1GG	2G	2c]	1d
.	2F	2B	.
=18	=18	=18	=18
4CC	4E	4c	8c
.	.	.	8gg
2.r	2.r	2.r	8ff#
.	.	.	8aa
.	.	.	8gg
.	.	.	8ee
.	.	.	8ff
.	.	.	8dd
=19	=19	=19	=19
1r	8r	8r	2.cc
.	8e	8g	.
.	8d#	8f#	.
.	8f	8a	.
.	8e	8g	.
.	8c	8e	.
.	8d	8f	8b
.	8B	8d	8dd
=20	=20	=20	=20
8r	[1d	[1B	1ff
8GG	.	.	.
8FF#	.	.	.
8AA	.	.	.
8GG	.	.	.
8BB	.	.	.
8D	.	.	.
8E	.	.	.
=21	=21	=21	=21
4F	4d]	4B]	8r
.	.	.	8ddd
2.r	2.r	2.r	8ccc#
.	.	.	8eee
.	.	.	8ddd
.	.	.	8bb
.	.	.	8ccc
.	.	.	8aa
=22	=22	=22	=22
1r	8r	8r	[1gg
.	8b	8dd	.
.	8a#	8cc#	.
.	8cc#	8ee	.
.	8b	8dd	.
.	8g	8b	.
.	8cc	8ee	.
.	8a	8cc	.
=23	=23	=23	=23
8r	1dd	1ff	1gg]
8AA-	.	.	.
8GG	.	.	.
8C	.	.	.
8BB	.	.	.
8D	.	.	.
8G	.	.	.
8B	.	.	.
=24	=24	=24	=24
4c	8cc	4ee	8r
.	8cc	.	8eee
2.r	8b	4.r	8ddd
.	8dd	.	8fff
.	4cc	.	8eee
.	.	8ee	8ccc
.	4r	8dd	8bb
.	.	8ff	8ddd
=25	=25	=25	=25
1r	8r	8ee	8ccc
.	8cc	8ee	8aa
.	8b	8dd	8gg#
.	8dd	8ff	8bb
.	8cc	8ee	8aa
.	8b	8dd	8gg
.	8a	8cc	8ff#
.	8cc	8ee	8aa
=26	=26	=26	=26
1r	8b	8dd	8gg
.	8a	8cc	8ff#
.	8g	8b	8ee
.	8f#	8a	8dd
.	2e	2g	8cc#
.	.	.	8gg
.	.	.	8ee
.	.	.	8cc#
=27	=27	=27	=27
8r	4d	4f#	8dd
8d	.	.	8dd
8c#	2.r	4g	8ee
8e	.	.	8cc#
8r	.	4f#	8dd
8d	.	.	8dd
8c#	.	4g	8ee
8e	.	.	8cc#
=28	=28	=28	=28
8r	1r	4f#	8dd
8d	.	.	8dd
8c#	.	4g	8ee
8e	.	.	8cc#
8r	.	4f#	8dd
8d	.	.	8dd
8c#	.	4g	8ee
8e	.	.	8cc#
=29	=29	=29	=29
1d	2r	8f#	8dd
.	.	8a	8cc
.	.	8g#	8b
.	.	8b	8dd
.	8r	8a	4cc
.	8A	8c	.
.	8G#	8B	4r
.	8B	8d	.
=30	=30	=30	=30
8r	[2A	[2c	1r
8DD	.	.	.
8CC#	.	.	.
8EE	.	.	.
4DD	8A]	8c]	.
.	8a	8cc	.
4r	8g	8b	.
.	8f#	8a	.
=31	=31	=31	=31
8GG	2b	2dd	2gg
8G	.	.	.
8G	.	.	.
8G	.	.	.
8G	2cc	2ee	2aa
8G	.	.	.
8G	.	.	.
8G	.	.	.
=32	=32	=32	=32
8G	2a	2cc	4.ff#
8G	.	.	.
8G	.	.	.
8G	.	.	16ee
.	.	.	16ff#
4G	4b	4dd	4gg
4r	4r	4r	4gg#
=33	=33	=33	=33
1r	8f#	1dd	2aa
.	8d	.	.
.	8f#	.	.
.	8d	.	.
.	8g	.	4bb-
.	8d	.	.
.	8g#	.	4bb
.	8d	.	.
=34	=34	=34	=34
2.d	2.a	2.ff#	2.ccc
4r	4r	4r	4ccc#
=35	=35	=35	=35
4GG 4G	4G 4b 4d	4b 4d	16ddd
.	.	.	16bb
.	.	.	16gg
.	.	.	16dd
2.r	2.r	8r	16b
.	.	.	16dd
.	.	8b	16g
.	.	.	16dd
.	.	8f#	16a
.	.	.	16dd
.	.	8g	16b
.	.	.	16dd
.	.	8a	16cc
.	.	.	16dd
.	.	8f#	16a
.	.	.	16dd
=36	=36	=36	=36
4G 4GG	4G 4b 4d	4g	16ddd
.	.	.	16bb
.	.	.	16gg
.	.	.	16dd
2.r	2.r	8r	16b
.	.	.	16dd
.	.	8b	16g
.	.	.	16dd
.	.	8f#	16a
.	.	.	16dd
.	.	8g	16b
.	.	.	16dd
.	.	8a	16cc
.	.	.	16dd
.	.	8f#	16a
.	.	.	16dd
=37	=37	=37	=37
4G	4d	4g	16b
.	.	.	16G
.	.	.	16B
.	.	.	16d
4r	4r	4r	16g
.	.	.	16b
.	.	.	16dd
.	.	.	16b
4A	4f#	4cc	16cc
.	.	.	16A
.	.	.	16c
.	.	.	16f#
4r	8r	4r	16a
.	.	.	16cc
.	16cc	.	16ee
.	16a	.	16cc
=38	=38	=38	=38
4B	4g	4dd	16b
.	.	.	16f#
.	.	.	16g
.	.	.	16b
4r	4r	4r	16dd
.	.	.	16ff
.	.	.	16aa
.	.	.	16ff
4c	4g	4ee	16ee
.	.	.	16cc
.	.	.	16ee
.	.	.	16gg
4r	4r	4r	16ccc
.	.	.	16gg
.	.	.	16eee
.	.	.	16ccc
=39	=39	=39	=39
1r	8c	8e	[4ggg
.	8c	8e	.
.	8c	8e	16ggg]
.	.	.	16fff#
.	8c	8e	16ggg
.	.	.	16fff#
.	8c	8e	8ggg
.	8c	8cc	8eee
.	8c	8b	8ddd
.	8c	8a	8ccc
=40	=40	=40	=40
1r	8d	8g	16bb
.	.	.	16ddd
.	8d	8g	16ggg
.	.	.	16ddd
.	8d	8g	16ggg
.	.	.	16ddd
.	8d	8g	16bb
.	.	.	16gg
.	8d	8f#	2aa
.	8d	8f#	.
.	8d	8f#	.
.	8d	8f#	.
=41	=41	=41	=41
1r	4G	8g	4gg
.	.	8d	.
.	2.r	8d	2.r
.	.	8d	.
.	.	8d	.
.	.	8d	.
.	.	8d	.
.	.	8d	.
=42	=42	=42	=42
2B	2d	2g	1r
2c	2e	2a	.
=43	=43	=43	=43
2A	2c	2f#	8r
.	.	.	8ee-
.	.	.	8ee-
.	.	.	8ee-
2B	2d	4g	8ee-
.	.	.	8dd
.	.	4g#	8ff
.	.	.	8ff
=44	=44	=44	=44
2c	2e	2a	8ff
.	.	.	8ee
.	.	.	16dd
.	.	.	16cc
.	.	.	16b
.	.	.	16a
4d	4d	4b	4g
4D	4c	4f#	4a
=45	=45	=45	=45
8GG	8B	8g	16b
.	.	.	16cc
8D	8f#	8c	16a
.	.	.	16b
8G	8g	8B	8g
8D	8c	8f#	8a
8GG	8B	8g	16b
.	.	.	16cc
8D	8f#	8c	16a
.	.	.	16b
8G	8g	8B	8g
8GG	8G	8b	8dd
=46	=46	=46	=46
2C	8e	8g	8cc
.	8d	8f#	8b
.	8c	8e	8a
.	8B	8d	8g
2D	8A	8c	8f#
.	8G	8B	8e
.	8F#	8A	8d
.	8c	8f#	8a
=47	=47	=47	=47
8GG	8B	8g	16b
.	.	.	16cc
8D	8f#	8c	16a
.	.	.	16b
8G	8g	8B	8g
8D	8c	8f#	8a
8GG	8B	8g	16b
.	.	.	16cc
8D	8f#	8c	16a
.	.	.	16b
8G	8g	8B	8g
8GG	8d	8f	8b
=48	=48	=48	=48
8C	8e	8e	8cc
8C	8e	8cc	8ee
8GG	8c	8ee	8gg
8EE	8G	8gg	8ccc
4CC	4E	4ccc	4eee
4r	4r	4r	4r
=49	=49	=49	=49
8d	8g	8b	[4ddd
8d	8g	8b	.
8d	8g	8b	16ddd]
.	.	.	16ggg
8d	8g	8b	16fff#
.	.	.	16eee
8d	8g	8b	[4ddd
8d	8g	8b	.
8d	8g	8b	16ddd]
.	.	.	16ggg
8d	8g	8b	16fff#
.	.	.	16eee
=50	=50	=50	=50
8.d	8.g	8.b	16ddd
.	.	.	16ggg
.	.	.	16fff#
16c#	16g	16a#	16eee
8.d	8.g	8.b	16ddd
.	.	.	16ggg
.	.	.	16fff#
16c#	16g	16a#	16eee
4d	4g	4b	8ddd
.	.	.	8bbb
4r	4r	4r	8bbb
.	.	.	8bbb
=51	=51	=51	=51
8d	8g	2r	1aa
8d	8g	.	.
8d	8g	.	.
8d	8g	.	.
8D	8f#	2c	.
8D	8f#	.	.
8D	8f#	.	.
8D	8f#	.	.
=52	=52	=52	=52
4G	4g	16G	4gg
.	.	16B	.
.	.	16d	.
.	.	16f#	.
4r	4r	16g	4r
.	.	16b	.
.	.	16dd	.
.	.	16b	.
4D	16D	4cc	4ff# 4a 4d
.	16F#	.	.
.	16A	.	.
.	16c	.	.
4r	16d	4r	4r
.	16f#	.	.
.	16a	.	.
.	16cc	.	.
=53	=53	=53	=53
4G	4b	4G 4b 4d	16g
.	.	.	16b
.	.	.	16dd
.	.	.	16ff#
4r	4r	4r	16gg
.	.	.	16bb
.	.	.	16ddd
.	.	.	16bb
16DD	4f# 4A	4a 4d	4ccc
16FF#	.	.	.
16AA	.	.	.
16C	.	.	.
16D	4r	4r	4ff# 4a
16F#	.	.	.
16A	.	.	.
16c	.	.	.
=54	=54	=54	=54
4B	4d	4G 4g	4b 4gg
4GG	4d 4B	4gg 4b	4bb
4GG	4B 4d	4gg 4b	4G 4g
4r	4r	4r	4r
=55	=55	=55	=55
2GG	2G	2g	2g
2AA-	2A-	2a-	2a-
=56	=56	=56	=56
2FF#	2F#	2f#	2f#
2GG	2G	2g	2g
=57	=57	=57	=57
8EE-	2G	2B-	2e-
8EE-	.	.	.
8EE-	.	.	.
8EE-	.	.	.
8EE-	2A-	2c	2f
8EE-	.	.	.
8EE-	.	.	.
8EE-	.	.	.
=58	=58	=58	=58
8EE-	2F	2A-	2d
8EE-	.	.	.
8EE-	.	.	.
8EE-	.	.	.
4EE-	4G	4G	4e-
4r	4r	4r	4e
=59	=59	=59	=59
1r	8D	1B-	2f
.	8B-	.	.
.	8D	.	.
.	8B-	.	.
.	8E-	.	4g-
.	8B-	.	.
.	8E	.	4g
.	8B-	.	.
=60	=60	=60	=60
2.BB-	2.F	2.d	2.a-
4r	4r	4r	4a
=61	=61	=61	=61
1r	1r	8g	2b-
.	.	8e-	.
.	.	8g	.
.	.	8e-	.
.	.	8a-	4cc
.	.	8e-	.
.	.	8a-	4dd
.	.	8e-	.
=62	=62	=62	=62
1r	1r	8g	4.ee-
.	.	8e-	.
.	.	8g	.
.	.	8e-	8b-
.	.	8a-	8cc-
.	.	8e-	8cc
.	.	8a-	8dd-
.	.	8e-	8dd
=63	=63	=63	=63
1r	1r	8g	8.ee-
.	.	8e-	.
.	.	.	16gg
.	.	8g	8bb-
.	.	8e-	8b-
.	.	8a-	8cc-
.	.	8e-	8cc
.	.	8a-	8dd-
.	.	8e-	8dd
=64	=64	=64	=64
8c	2r	1g	2ee-
8G	.	.	.
8c	.	.	.
8G	.	.	.
8B-	2C	.	2ee
8G	.	.	.
8B-	.	.	.
8G	.	.	.
=65	=65	=65	=65
2A-	2c	2f	4ff
.	.	.	2.r
2B-	2d-	2g	.
=66	=66	=66	=66
2G	2B-	2e	8r
.	.	.	8dd-
.	.	.	8dd-
.	.	.	8dd-
4A-	2c	4f	8dd-
.	.	.	8cc
4A	.	4f#	8ee-
.	.	.	8ee-
=67	=67	=67	=67
4B-	4d	4g	8ee-
.	.	.	8dd
2.r	4b-	4dd	8gg
.	.	.	8gg
.	4a	4cc	8gg
.	.	.	8ff#
.	4g	4cc#	8bb-
.	.	.	8bb-
=68	=68	=68	=68
1r	4f#	4dd	8bb-
.	.	.	8aa
.	8e-	8gg	8ccc#
.	8e-	8gg	8ccc#
.	8e-	8gg	8ccc#
.	8d	8ff#	8ddd
.	8e-	8g	8ccc#
.	8e-	8g	8ccc#
=69	=69	=69	=69
2r	8e-	8g	8ccc#
.	8d	8f#	8ddd
.	8C#	8c#	2.r
.	8C#	8c#	.
4r	8C#	8c#	.
.	8D	8d	.
8CC#	8C#	4r	.
8CC#	8C#	.	.
=70	=70	=70	=70
8CC#	8C#	1r	1r
8DD	8D	.	.
2.r	2.r	.	.
=71	=71	=71	=71
2c	2e	2a	1r
2d	2f	2b	.
=72	=72	=72	=72
2B	2d	2g#	8r
.	.	.	8ff
.	.	.	8ff
.	.	.	8ff
4c	4c	4a	8ff
.	.	.	8ee
4r	8cc	8ee	8aa
.	8cc	8ee	8aa
=73	=73	=73	=73
1r	4b	4dd	8aa
.	.	.	8gg#
.	8a	8dd#	8ccc
.	8a	8dd#	8ccc
.	4g#	4ee	8ccc
.	.	.	8bb
.	8f	8a	8ddd#
.	8f	8a	8ddd#
=74	=74	=74	=74
2r	8f	8a	8ddd#
.	8e	8g#	8eee
.	8f	8a	8ddd#
.	8f	8a	8ddd#
4r	8f	8a	8ddd#
.	8e	8g#	8eee
8G#	8e	8b	8ddd
8G#	8e	8b	8ddd
=75	=75	=75	=75
4A	4e	4cc	16ccc
.	.	.	16eee
.	.	.	16ccc
.	.	.	16aa
2.r	2.r	8r	16ee
.	.	.	16cc
.	.	8a	16a
.	.	.	16cc
.	.	8g#	16b
.	.	.	16ee
.	.	8a	16cc
.	.	.	16ee
.	.	8b	16dd
.	.	.	16ee
.	.	8g#	16b
.	.	.	16ee
=76	=76	=76	=76
4A	4e	4a	16cc
.	.	.	16eee
.	.	.	16ccc
.	.	.	16aa
2.r	2.r	8r	16ee
.	.	.	16cc
.	.	8a	16a
.	.	.	16cc
.	.	8g#	16b
.	.	.	16ee
.	.	8a	16cc
.	.	.	16ee
.	.	8b	16dd
.	.	.	16ee
.	.	8g#	16b
.	.	.	16ee
=77	=77	=77	=77
4A	4e 4c	4a	16cc
.	.	.	16A
.	.	.	16c
.	.	.	16e
4r	4r	4r	16a
.	.	.	16cc
.	.	.	16b
.	.	.	16a
4A	4d 4B	4g#	16g#
.	.	.	16d
.	.	.	16e
.	.	.	16g#
4r	4r	4r	16b
.	.	.	16dd
.	.	.	16cc
.	.	.	16b
=78	=78	=78	=78
2A	2c	[1a	16cc
.	.	.	16a
.	.	.	16ee
.	.	.	16a
.	.	.	16cc
.	.	.	16a
.	.	.	16ee
.	.	.	16a
2G	2c#	.	16cc#
.	.	.	16a
.	.	.	16ee
.	.	.	16a
.	.	.	16cc#
.	.	.	16a
.	.	.	16ee
.	.	.	16a
=79	=79	=79	=79
2F	2d	1a]	16dd
.	.	.	16d
.	.	.	16ff
.	.	.	16d
.	.	.	16dd
.	.	.	16d
.	.	.	16ff
.	.	.	16d
2C#	2e	.	16ee
.	.	.	16a
.	.	.	16gg
.	.	.	16a
.	.	.	16ee
.	.	.	16a
.	.	.	16gg
.	.	.	16a
=80	=80	=80	=80
4D	4f	4a	16ff
.	.	.	16dd
.	.	.	16fff
.	.	.	16dd
4.r	4.r	4.r	16fff
.	.	.	16dd
.	.	.	16fff
.	.	.	16dd
.	.	.	8fff
4BB-	4B-	4B-	16B-
.	.	.	16d
.	.	.	16B-
.	.	.	16d
8AA	8A	8A	16A
.	.	.	16d
=81	=81	=81	=81
8GG#	8G#	8G#	16G#
.	.	.	16d
8AA	8A	8A	16A
.	.	.	16d
8BB-	8B-	8B-	16B-
.	.	.	16d
8AA	8A	8A	16A
.	.	.	16d
4GG#	4G#	4G#	16G#
.	.	.	16f
.	.	.	16e
.	.	.	16d
8r	8r	8r	16b
.	.	.	16f
8GG#	8B	8f	16e
.	.	.	16d
=82	=82	=82	=82
4AA	4c	4e	16c
.	.	.	16e
.	.	.	16g#
.	.	.	16a
8r	8r	8r	16g#
.	.	.	16a
8C#	8A	8e	16g#
.	.	.	16a
4D	4A	4f	16g
.	.	.	16f
.	.	.	16e
.	.	.	16d
8r	8r	8r	16ee
.	.	.	16dd
8D	8f	8b	16cc
.	.	.	16b
=83	=83	=83	=83
8E	8e	8a	16cc
.	.	.	16ee
8E	8e	8a	16aa
.	.	.	16ee
8E	8e	8a	16aa
.	.	.	16ee
8E	8e	8a	16cc
.	.	.	16a
8E	8d	8g#	2b
8E	8d	8g#	.
8E	8d	8g#	.
8E	8d	8g#	.
=84	=84	=84	=84
1r	2c	2e	2a
.	2d	2f	2b
=85	=85	=85	=85
8r	2B	2d	2g#
8E	.	.	.
8E	.	.	.
8E	.	.	.
8E	4A	4c	4a
8F	.	.	.
4r	4r	4r	4r
=86	=86	=86	=86
8r	2g	2b-	2ee
8c#	.	.	.
8c#	.	.	.
8c#	.	.	.
8c#	4f	4a	4ff
8d	.	.	.
4r	4r	4r	4r
=87	=87	=87	=87
8r	2cc	2ee-	2aa
8f#	.	.	.
8f#	.	.	.
8f#	.	.	.
8f#	4b-	4dd	4bb-
8g	.	.	.
8g#	4dd	4ff	4bb
8g#	.	.	.
=88	=88	=88	=88
8g#	4cc	4ee	4ccc
8a	.	.	.
8e	8g	8cc#	8bb-
8e	8g	8cc#	8bb-
8e	8g	8cc#	8bb-
8f	8a	8dd	8aa
8d	8f	8b	8aa-
8d	8f	8b	8aa-
=89	=89	=89	=89
8d	8f	8b	8aa-
8e	8g	8cc	8gg
8c	8e-	8a	8ff#
8c	8e-	8a	8ff#
8c	8e-	8a	8ff#
8B	8d	8b	8gg
4r	4r	8dd	8ff
.	.	8dd	8ff
=90	=90	=90	=90
2G	2B	16dd	16ff
.	.	16cc	16ee
.	.	16b	16dd
.	.	16a	16cc
.	.	16g	16b
.	.	16f	16a
.	.	16e	16g
.	.	16d	16f
2A	2c	4c	8e
.	.	.	16ccc
.	.	.	16bb
.	.	4r	16aa
.	.	.	16gg
.	.	.	16ff
.	.	.	16ee
=91	=91	=91	=91
2F#	2A	1r	16dd
.	.	.	16cc
.	.	.	16b
.	.	.	16a
.	.	.	16g
.	.	.	16f#
.	.	.	16a
.	.	.	16c
4G	4B	.	16B
.	.	.	16c
.	.	.	16B
.	.	.	16A
4r	4r	.	16B
.	.	.	16G
.	.	.	16B
.	.	.	16c
=92	=92	=92	=92
4G	4B	4B	16d
.	.	.	16e
.	.	.	16d
.	.	.	16c#
4r	4r	4r	16d
.	.	.	16B
.	.	.	16d
.	.	.	16e
4G	4B	4d	16f
.	.	.	16g
.	.	.	16f
.	.	.	16e
4r	4r	4r	16f
.	.	.	16d
.	.	.	16b
.	.	.	16cc
=93	=93	=93	=93
4G	4B 4d	4f	16dd
.	.	.	16ee
.	.	.	16dd
.	.	.	16cc#
4r	4r	4r	16dd
.	.	.	16b
.	.	.	16dd
.	.	.	16ee
4G	4d 4B	4f	16ff
.	.	.	16ee
.	.	.	16dd
.	.	.	16cc#
4r	4r	4r	16dd
.	.	.	16cc#
.	.	.	16dd
.	.	.	16ee
=94	=94	=94	=94
4G	4d 4B	4f	16ff
.	.	.	16ee
.	.	.	16dd
.	.	.	16cc#
4r	4r	4r	16dd
.	.	.	16cc#
.	.	.	16dd
.	.	.	16ee
4G	4B 4d	4f	16ff
.	.	.	16ee
.	.	.	16dd
.	.	.	16cc#
4r	4r	4r	16dd
.	.	.	16ee
.	.	.	16ff
.	.	.	16gg
=95	=95	=95	=95
4GG	4B 4d	4f	8aa
.	.	.	8gg#
2.r	2.r	2.r	8bb
.	.	.	8aa
.	.	.	8gg
.	.	.	8ff#
.	.	.	8aa
.	.	.	8gg
=96	=96	=96	=96
1r	1r	1r	8ff
.	.	.	8ee
.	.	.	8gg
.	.	.	8ff
.	.	.	8ee
.	.	.	8dd
.	.	.	8ff
.	.	.	8b
=97	=97	=97	=97
8c	2e	2g	2cc
8c	.	.	.
8c	.	.	.
8c	.	.	.
8c	2f	2a	2dd
8c	.	.	.
8c	.	.	.
8c	.	.	.
=98	=98	=98	=98
8c	2d	2f	2b
8c	.	.	.
8c	.	.	.
8c	.	.	.
8c	2e	2g	4cc
8c	.	.	.
8c	.	.	4cc#
8c	.	.	.
=99	=99	=99	=99
8c	2f	4..a	2dd
8c	.	.	.
8c	.	.	.
8c	.	.	.
.	.	16b	.
8c	4f#	4cc	4ee-
8c	.	.	.
8c	4g	4cc	4ee
8c	.	.	.
=100	=100	=100	=100
8c	4a	4cc	2ff
8c	.	.	.
8c	4b	4dd	.
8c	.	.	.
4c	4cc	4g	4ee
4r	4r	4r	8r
.	.	.	8gg
=101	=101	=101	=101
1EE	[1C	1G	8ccc
.	.	.	16eee
.	.	.	16ddd
.	.	.	16ccc
.	.	.	16bb
.	.	.	16aa
.	.	.	16gg
.	.	.	16ff
.	.	.	16ee
.	.	.	16dd
.	.	.	16cc
.	.	.	16b
.	.	.	16a
.	.	.	16g
.	.	.	16f
=102	=102	=102	=102
2.FF	4C]	2.A	2e
.	4C#	.	.
.	2D	.	4d
4FF#	.	8c	4a
.	.	8d	.
=103	=103	=103	=103
[1GG	[2F	[2d	2c
.	8F]	8d]	8B
.	8E	8c	8c
.	8F	8B	8d
.	8E	8c	8e
=104	=104	=104	=104
2GG]	2D	4c	2f
.	.	4B	.
8CC	4E	4c	4e
8C	.	.	.
8GG	4r	4r	4r
8EE	.	.	.
=105	=105	=105	=105
4CC	1r	2r	2cc
2.r	.	.	.
.	.	2f	2dd
=106	=106	=106	=106
1r	1r	2g	4.b
.	.	.	16a
.	.	.	16b
.	.	4.e	4cc
.	.	.	4cc#
.	.	16d	.
.	.	16e	.
=107	=107	=107	=107
1r	1r	4f	2dd
.	.	4f#	.
.	.	4g	4ee-
.	.	4g#	8.ee
.	.	.	32dd
.	.	.	32ee
=108	=108	=108	=108
1r	2r	4a	2ff
.	.	8.b	.
.	.	32a	.
.	.	32b	.
.	2c	4cc	8ee
.	.	.	8gg
.	.	4r	8ccc
.	.	.	8bb
=109	=109	=109	=109
2F	2d	1r	8aa
.	.	.	8a
.	.	.	8aa
.	.	.	8aa
2G	4.B	.	16aa
.	.	.	16dd
.	.	.	16cc#
.	.	.	16dd
.	.	.	16ee-
.	.	.	16ee
.	16A	.	16ff
.	16B	.	16ff#
=110	=110	=110	=110
4.E	4c	1r	8gg
.	.	.	4gg
.	4c#	.	.
16D	.	.	8b-
16E	.	.	.
4F	2d	.	8a
.	.	.	4aa
4F#	.	.	.
.	.	.	8cc
=111	=111	=111	=111
[1G	2.B	2.d	8b
.	.	.	8gg
.	.	.	8ff#
.	.	.	8aa
.	.	.	8gg
.	.	.	8dd
.	8.c	8.e	8gg
.	.	.	8ee
.	32B	32d	.
.	32c	32e	.
=112	=112	=112	=112
1G_	2.d	2.f	8ff
.	.	.	8ccc
.	.	.	8bb
.	.	.	8eee
.	.	.	8ddd
.	.	.	8bb
.	4B	4d	8gg
.	.	.	8ff
=113	=113	=113	=113
1G_	2.c	2.e	8ee
.	.	.	8gg
.	.	.	8ff#
.	.	.	8aa
.	.	.	8gg
.	.	.	8ee
.	8.d	8.f	8gg
.	.	.	8b
.	32c	32e	.
.	32d	32f	.
=114	=114	=114	=114
1G_	2.e	2.g	8cc
.	.	.	8ccc
.	.	.	8bb
.	.	.	8ddd
.	.	.	8ccc
.	.	.	8gg
.	4c	4e	8eee
.	.	.	8ddd
=115	=115	=115	=115
1G_	2.c	2.f# 2.A	8ccc
.	.	.	8ff#
.	.	.	8aa
.	.	.	8cc
.	.	.	8ee
.	.	.	8a
.	4A	4c	8cc
.	.	.	8f#
=116	=116	=116	=116
1G_	4.B	4.d	8g
.	.	.	8gg
.	.	.	8ff#
.	8c	8e-	8aa
.	4.B	4.d	8gg
.	.	.	8gg
.	.	.	8ff#
.	8c	8e-	8aa
=117	=117	=117	=117
2G]	4B	8d	8gg
.	.	8dd	8ff
.	4.r	8cc#	8ee
.	.	8ee	8gg
2r	.	8dd	4ff
.	8d	8f	.
.	8c#	8e	4r
.	8e	8g	.
=118	=118	=118	=118
8r	[2d	[2f	1r
8GG	.	.	.
8FF#	.	.	.
8AA	.	.	.
2GG	8d]	8f]	.
.	8dd	8ff	.
.	8cc	8ee	.
.	8b	8dd	.
=119	=119	=119	=119
2e	2g	2cc	1r
2f	2a	2dd	.
=120	=120	=120	=120
2d	2f	2b	8r
.	.	.	8aa-
.	.	.	8aa-
.	.	.	8aa-
2e	2g	4cc	8aa-
.	.	.	8gg
.	.	4cc#	8bb-
.	.	.	8bb-
=121	=121	=121	=121
4.f	2a	2dd	8bb-
.	.	.	8aa
.	.	.	16gg
.	.	.	16ff
8F	.	.	16ee
.	.	.	16dd
4G	4g	4ee	4cc
4G	4f	4b	4dd
=122	=122	=122	=122
4CC 4C	4e	4cc	16gg
.	.	.	16ee
.	.	.	16cc
.	.	.	16g
2.r	2.r	8r	16e
.	.	.	16g
.	.	8e	16c
.	.	.	16g
.	.	8B	16d
.	.	.	16g
.	.	8c	16e
.	.	.	16g
.	.	8d	16f
.	.	.	16g
.	.	8B	16d
.	.	.	16g
=123	=123	=123	=123
4CC 4C	4C 4e 4G	4c	16gg
.	.	.	16ee
.	.	.	16cc
.	.	.	16g
2.r	2.r	8r	16e
.	.	.	16g
.	.	8e	16c
.	.	.	16g
.	.	8B	16d
.	.	.	16g
.	.	8c	16e
.	.	.	16g
.	.	8d	16f
.	.	.	16g
.	.	8B	16d
.	.	.	16g
=124	=124	=124	=124
4C	4e	4c	16e
.	.	.	16c
.	.	.	16e
.	.	.	16g
4r	4r	4r	16cc
.	.	.	16ee
.	.	.	16dd
.	.	.	16cc
4D	4f	4b	16b
.	.	.	16d
.	.	.	16f
.	.	.	16g
4r	4r	4r	16b
.	.	.	16dd
.	.	.	16ff
.	.	.	16dd
=125	=125	=125	=125
4E	4g	4cc	16cc
.	.	.	16e
.	.	.	16g
.	.	.	16b-
4r	4r	4r	16cc
.	.	.	16ee
.	.	.	16gg
.	.	.	16bb-
4F	4a	4cc	16aa
.	.	.	16a
.	.	.	16ff
.	.	.	16aa
4r	4r	4r	16ccc
.	.	.	16aa
.	.	.	16gg
.	.	.	16ff
=126	=126	=126	=126
8G	8g	8cc	16ee
.	.	.	16gg
8G	8g	8cc	16ccc
.	.	.	16gg
8G	8g	8cc	16ccc
.	.	.	16gg
8G	8g	8cc	16ee
.	.	.	16cc
8G	8f	8b	2dd
8G	8f	8b	.
8G	8f	8b	.
8G	8f	8b	.
=127	=127	=127	=127
4C	8e	4cc	4cc
.	8g	.	.
2.r	8g	2.r	2.r
.	8g	.	.
.	8g	.	.
.	8g	.	.
.	8g	.	.
.	8g	.	.
=128	=128	=128	=128
2e	[1g	2cc	1r
2f	.	2dd	.
=129	=129	=129	=129
2d	1g]	2b	2ff
2d-	.	2b-	2gg
=130	=130	=130	=130
2c	2.g	2b-	2ee
4d-	.	2cc-	2ff
4d	4a-	.	.
=131	=131	=131	=131
2e-	2a-	2cc	2ee-
2E-	2B-	2d-	2g
=132	=132	=132	=132
16AA-	2cc	2ee-	2aa-
16GG	.	.	.
16AA-	.	.	.
16GG	.	.	.
16AA-	.	.	.
16GG	.	.	.
16AA-	.	.	.
16GG	.	.	.
16AA-	2dd-	2ff	2bb-
16GG	.	.	.
16AA-	.	.	.
16GG	.	.	.
16AA-	.	.	.
16GG	.	.	.
16AA-	.	.	.
16GG	.	.	.
=133	=133	=133	=133
16AA-	2b-	2dd-	2gg
16GG	.	.	.
16AA-	.	.	.
16GG	.	.	.
16AA-	.	.	.
16GG	.	.	.
16AA-	.	.	.
16GG	.	.	.
8AA-	8cc	8ee-	8aa-
16AA-	16A-	16A-	16A-
16GG	16G	16G	16G
16AA-	16A-	16A-	16A-
16BB-	16B-	16B-	16B-
16C	16c	16c	16c
16D-	16d-	16d-	16d-
=134	=134	=134	=134
8E-	8e-	8e-	8e-
16BB-	16B-	16B-	16B-
16AA	16A	16A	16A
16BB-	16B-	16B-	16B-
16C	16c	16c	16c
16D-	16d-	16d-	16d-
16E-	16e-	16e-	16e-
8F	8f	8f	8f
16C	16c	16c	16c
16BB	16B	16B	16B
16C	16c	16c	16c
16D	16d	16d	16d
16E-	16e-	16e-	16e-
16F	16f	16f	16f
=135	=135	=135	=135
1G	8g	8g	8g
.	8d	8f	16g
.	.	.	16f#
.	8d	8f	16g
.	.	.	16a
.	8d	8f	16b
.	.	.	16g
.	8d	8f	8cc
.	8c	8e-	16cc
.	.	.	16b
.	8c	8e-	16cc
.	.	.	16dd
.	8c	8e-	16ee-
.	.	.	16ff
=136	=136	=136	=136
8r	8c	8e-	8gg
8F	8B	8d	16gg
.	.	.	16ff#
8F	8B	8d	16gg
.	.	.	16aa
8F	8d	8d	16bb
.	.	.	16gg
8F	8c	8g	8ccc
8E-	8c	8g	16ccc
.	.	.	16bb
8E-	8c	8g	16ccc
.	.	.	16ddd
8C	8c	8g	16eee-
.	.	.	16ccc
=137	=137	=137	=137
4GG	4B	[1gg	2.ggg
2.r	2.r	.	.
.	.	.	4fff
=138	=138	=138	=138
2r	2cc#	8gg]	2eee
.	.	16gg	.
.	.	16ff#	.
.	.	16gg	.
.	.	16bb-	.
.	.	16aa	.
.	.	16gg	.
8r	4.dd	[2ff	4.fff
16d	.	.	.
16c#	.	.	.
16d	.	.	.
16e	.	.	.
16f	8cc	.	8eee
16d	.	.	.
=139	=139	=139	=139
2g	2b	8ff]	2ddd
.	.	16ff	.
.	.	16ee	.
.	.	16ff	.
.	.	16aa	.
.	.	16gg	.
.	.	16ff	.
8r	4.cc	[2ee	4.eee
16c	.	.	.
16B	.	.	.
16c	.	.	.
16d	.	.	.
16e	8b	.	8ddd
16c	.	.	.
=140	=140	=140	=140
2f	[2a	16ee]	1ccc
.	.	16gg	.
.	.	16ff	.
.	.	16ee	.
.	.	16aa	.
.	.	16gg	.
.	.	16ff	.
.	.	16ee	.
2f#	16a]	[2dd	.
.	16b	.	.
.	16cc	.	.
.	16b	.	.
.	8cc	.	.
.	16b	.	.
.	16a	.	.
=141	=141	=141	=141
4g	4g	8dd]	8bb
.	.	8dd	8bb
2.r	2.r	8ff	8aa
.	.	8ff	8aa
.	.	8ee	8gg
.	.	8ee	8gg
.	.	8dd	8ff
.	.	8dd	8ff
=142	=142	=142	=142
8C	8e	8cc	16ee
.	.	.	16ff
8G	8b	8f	16dd
.	.	.	16ee
8c	8cc	8e	8cc
8G	8f	8b	8dd
8C	8e	8cc	16ee
.	.	.	16ff
8G	8b	8f	16dd
.	.	.	16ee
8c	8cc	8e	8cc
8C	8c	8ee	8gg
=143	=143	=143	=143
2F	8a	8cc	8ff
.	8g	8b	8ee
.	8f	8a	8dd
.	8e	8g	8cc
2G	8d	8f	8b
.	8c	8e	8a
.	8B	8d	8g
.	8f	8b	8dd
=144	=144	=144	=144
8C	8e	8cc	16ee
.	.	.	16ff
8G	8b	8f	16dd
.	.	.	16ee
8c	8cc	8e	8cc
8G	8f	8b	8dd
8C	8e	8cc	16ee
.	.	.	16ff
8G	8b	8f	16dd
.	.	.	16ee
8c	8cc	8e	8cc
8C	8g	8b-	8ee
=145	=145	=145	=145
8F	8a	8a	8ff
8F	8a	8a	8cc
8C	8f	8cc	8ff
8AA	8c	8ff	8aa
4FF	4A	4aa	4ccc
4r	4r	4r	8r
.	.	.	8aa
=146	=146	=146	=146
8G	8e	8cc	[4gg
8G	8e	8cc	.
8G	8e	8cc	16gg]
.	.	.	16ccc
8G	8e	8cc	16bb
.	.	.	16aa
8G	8e	8cc	[4gg
8G	8e	8cc	.
8G	8e	8cc	16gg]
.	.	.	16ccc
8G	8e	8cc	16bb
.	.	.	16aa
=147	=147	=147	=147
8.G	8.e	8.cc	16gg
.	.	.	16ccc
.	.	.	16bb
16F#	16d#	16cc	16aa
8.G	8.e	8.cc	16gg
.	.	.	16ccc
.	.	.	16bb
16F#	16d#	16cc	16aa
4G	4e	4cc	8gg
.	.	.	8eee
4r	4r	4r	8eee
.	.	.	8eee
=148	=148	=148	=148
8G	2r	8cc	1dd
8G	.	8cc	.
8G	.	8cc	.
8G	.	8cc	.
8GG	2f	8b	.
8GG	.	8b	.
8GG	.	8b	.
8GG	.	8b	.
=149	=149	=149	=149
2CC 2C	2c 2C	2c	2c
2DD	2D 2d	2d	2d
=150	=150	=150	=150
4.BB	4.B	4.B	4.B
16AA	16A	16A	16A
16BB	16B	16B	16B
4C 4CC	4c 4C	4c	4c
4CC#	4C#	4c#	4c#
=151	=151	=151	=151
4.DD	4.D	4.d	4.d
8EE-	8E-	8e-	8e-
8EE	8E	8e	8e
8FF	8F	8f	8f
8FF#	8F#	8f#	8f#
8GG	8G	8g	8g
=152	=152	=152	=152
8GG#	8G#	8g#	8g#
8AA	8A	8a	8a
8BB	8B	8b	8b
8C	8c	8cc	8cc
4FF	4d	4a	4dd
4GG	4d	4f	4b
=153	=153	=153	=153
4C	4e	4e	16c
.	.	.	16e
.	.	.	16g
.	.	.	16b
4r	4r	4r	16cc
.	.	.	16ee
.	.	.	16gg
.	.	.	16ee
4G	4d	16G	4ff
.	.	16B	.
.	.	16d	.
.	.	16f	.
4r	4r	16g	4r
.	.	16b	.
.	.	16dd	.
.	.	16ff	.
=154	=154	=154	=154
4C	16C	4ee	4ee 4cc
.	16E	.	.
.	16G	.	.
.	16B	.	.
4r	16c	4r	4r
.	16e	.	.
.	16g	.	.
.	16e	.	.
16GG	4f	4dd	4bb 4dd
16BB	.	.	.
16D	.	.	.
16F	.	.	.
16G	4G	4r	4r
16B	.	.	.
16d	.	.	.
16f	.	.	.
=155	=155	=155	=155
4e	4c	4cc	4ccc 4ee
4CC 4C	4G 4e	4cc 4e	4g 4ee 4cc
4CC 4C	4e 4G	4cc 4e	4ee 4cc 4g
4r	4r	4r	4r
==	==	==	==
*-	*-	*-	*-
!!!RWG1: This file contains only pitch and duration data.
!!!RWG2: Transposing instruments are not transposed.
!!!RWG3: Spines may have incompatible meters.
!!!RWG4: Durations of rests and tied notes may be interpreted.
!!!RWG: Key is interpreted using the Humdrum key tool.
!!!GTL: 6 Quartetti ("Apponyi")
!!!AFT: stage1
!!!END: 1997/04/15
!!!KEY: 2329517241
!!!EMD: Converted from MuseData to Humdrum Dec 16, 2000, by Andreas Kornstaedt using muse2kern.
!!!EMD: Manual editing by Craig Sapp, Nov 2001
